packages/react-icons/icons/pause.svg

<svg width="24" height="24" viewBox="0 0 24 24" xmlns="http://www.w3.org/2000/svg"><path fill-rule="evenodd" clip-rule="evenodd" d="M12 3.89998C7.52647 3.89998 3.89998 7.52647 3.89998 12C3.89998 16.4735 7.52647 20.1 12 20.1C16.4735 20.1 20.1 16.4735 20.1 12C20.1 7.52647 16.4735 3.89998 12 3.89998ZM2.09998 12C2.09998 6.53236 6.53236 2.09998 12 2.09998C17.4676 2.09998 21.9 6.53236 21.9 12C21.9 17.4676 17.4676 21.9 12 21.9C6.53236 21.9 2.09998 17.4676 2.09998 12ZM9.99998 6.59998C10.497 6.59998 10.9 7.00292 10.9 7.49998V16.5C10.9 16.997 10.497 17.4 9.99998 17.4C9.50292 17.4 9.09998 16.997 9.09998 16.5V7.49998C9.09998 7.00292 9.50292 6.59998 9.99998 6.59998ZM14.9 7.49998C14.9 7.00292 14.497 6.59998 14 6.59998C13.5029 6.59998 13.1 7.00292 13.1 7.49998V16.5C13.1 16.997 13.5029 17.4 14 17.4C14.497 17.4 14.9 16.997 14.9 16.5V7.49998Z"/></svg>

<svg xmlns="http://www.w3.org/2000/svg" width="24" height="24"><path fill-rule="evenodd" d="M12 3.9a8.1 8.1 0 1 0 0 16.2 8.1 8.1 0 0 0 0-16.2ZM2.1 12c0-5.468 4.432-9.9 9.9-9.9s9.9 4.432 9.9 9.9-4.432 9.9-9.9 9.9-9.9-4.432-9.9-9.9ZM10 6.6a.9.9 0 0 1 .9.9v9a.9.9 0 0 1-1.8 0v-9a.9.9 0 0 1 .9-.9Zm4.9.9a.9.9 0 0 0-1.8 0v9a.9.9 0 0 0 1.8 0v-9Z" clip-rule="evenodd"/></svg>
